icons/lines/threed-cube-scan.svg

<svg xmlns="http://www.w3.org/2000/svg" width="24" height="24" viewBox="0 0 24 24" fill="none" stroke="currentColor" stroke-width="2" stroke-linecap="round" stroke-linejoin="round" >
  <path d="M2 9V7C2 4 4 2 7 2H17C20 2 22 4 22 7V9" stroke-miterlimit="10"/>
  <path d="M2 15V17C2 20 4 22 7 22H17C20 22 22 20 22 17V15" stroke-miterlimit="10"/>
  <path d="M6.7002 9.26001L12.0002 12.33L17.2602 9.28003"/>
  <path d="M12 17.7701V12.3201"/>
  <path d="M10.7602 6.29006L7.56023 8.07009C6.84023 8.47009 6.24023 9.48008 6.24023 10.3101V13.7001C6.24023 14.5301 6.83023 15.5401 7.56023 15.9401L10.7602 17.7201C11.4402 18.1001 12.5602 18.1001 13.2502 17.7201L16.4502 15.9401C17.1702 15.5401 17.7702 14.5301 17.7702 13.7001V10.3101C17.7702 9.48008 17.1802 8.47009 16.4502 8.07009L13.2502 6.29006C12.5602 5.90006 11.4402 5.90006 10.7602 6.29006Z"/>
  </svg>

<svg xmlns="http://www.w3.org/2000/svg" width="24" height="24" viewBox="0 0 24 24" fill="none" stroke="currentColor" stroke-width="2" stroke-linecap="round" stroke-linejoin="round">
  <path d="M12 17.77v-5.45" />
  <path d="M2 15v2c0 3 2 5 5 5h10c3 0 5-2 5-5v-2" />
  <path d="M2 9V7c0-3 2-5 5-5h10c3 0 5 2 5 5v2" />
  <path d="m6.7 9.26 5.3 3.07 5.26-3.05" />
  <path d="M7.56 8.07c-.72.4-1.32 1.41-1.32 2.24v3.39c0 .83.59 1.84 1.32 2.24l3.2 1.78c.68.38 1.8.38 2.49 0l3.2-1.78c.72-.4 1.32-1.41 1.32-2.24v-3.39c0-.83-.59-1.84-1.32-2.24l-3.2-1.78c-.69-.39-1.81-.39-2.49 0z" />
</svg>
